build/img/youtube-logo.svg

<svg width="240" height="240" viewBox="0 0 240 240" fill="none" xmlns="http://www.w3.org/2000/svg">
<circle cx="120" cy="120" r="120" fill="#FF0000"/>
<path fill-rule="evenodd" clip-rule="evenodd" d="M65.6833 65.136C52.6813 65.5796 42.1077 75.6584 41.2647 88.6406C40.6008 98.8652 40 110.799 40 120.5C40 130.201 40.6008 142.135 41.2647 152.359C42.1077 165.342 52.6813 175.42 65.6833 175.864C81.5373 176.405 102.777 177 119.5 177C136.365 177 158.127 176.395 174.295 175.85C187.306 175.412 197.893 165.329 198.737 152.338C199.4 142.118 200 130.195 200 120.5C200 110.805 199.4 98.8819 198.737 88.6619C197.893 75.6705 187.306 65.588 174.295 65.1498C158.127 64.6052 136.365 64 119.5 64C102.777 64 81.5373 64.595 65.6833 65.136ZM105 98V142.5L144 121L105 98Z" fill="white"/>
</svg>

<svg width="240" height="240" fill="none" xmlns="http://www.w3.org/2000/svg"><circle cx="120" cy="120" r="120" fill="red"/><path fill-rule="evenodd" clip-rule="evenodd" d="M65.683 65.136c-13.002.444-23.575 10.522-24.418 23.505C40.6 98.865 40 110.799 40 120.5s.6 21.635 1.265 31.859c.843 12.983 11.416 23.061 24.418 23.505 15.854.541 37.094 1.136 53.817 1.136 16.865 0 38.627-.605 54.795-1.15 13.011-.438 23.598-10.521 24.442-23.512.663-10.22 1.263-22.143 1.263-31.838s-.6-21.618-1.263-31.838c-.844-12.992-11.431-23.074-24.442-23.512-16.168-.545-37.93-1.15-54.795-1.15-16.723 0-37.963.595-53.817 1.136zM105 98v44.5l39-21.5-39-23z" fill="#fff"/></svg>
